fs/rectangle_portrait_location_target_20_filled.svg

<svg viewBox="0 0 20 20" fill="none" xmlns="http://www.w3.org/2000/svg" height="1em" width="1em">
  <path d="M6 2C4.89543 2 4 2.89543 4 4V16C4 17.1046 4.89543 18 6 18H11.6962C11.5683 17.8975 11.4457 17.7878 11.3289 17.6711C10.8501 17.1922 10.4885 16.614 10.2671 15.9818C9.95551 15.9328 9.66514 15.7865 9.43934 15.5607C9.15803 15.2794 9 14.8978 9 14.5C9 14.1022 9.15804 13.7206 9.43934 13.4393C9.66514 13.2135 9.95551 13.0672 10.2671 13.0182C10.4885 12.386 10.8501 11.8078 11.3289 11.3289C11.8078 10.8501 12.386 10.4885 13.0182 10.2671C13.0672 9.95551 13.2135 9.66514 13.4393 9.43934C13.7206 9.15803 14.1022 9 14.5 9C14.8978 9 15.2794 9.15804 15.5607 9.43934C15.7865 9.66514 15.9328 9.95551 15.9818 10.2671L16 10.2735V4C16 2.89543 15.1046 2 14 2H6ZM15.0556 15.3315C14.8911 15.4414 14.6978 15.5 14.5 15.5C14.2348 15.5 13.9804 15.3946 13.7929 15.2071C13.6054 15.0196 13.5 14.7652 13.5 14.5C13.5 14.3022 13.5586 14.1089 13.6685 13.9444C13.7784 13.78 13.9346 13.6518 14.1173 13.5761C14.3 13.5004 14.5011 13.4806 14.6951 13.5192C14.8891 13.5578 15.0673 13.653 15.2071 13.7929C15.347 13.9327 15.4422 14.1109 15.4808 14.3049C15.5194 14.4989 15.4996 14.7 15.4239 14.8827C15.3482 15.0654 15.22 15.2216 15.0556 15.3315ZM17.949 14H18.5C18.6326 14 18.7598 14.0527 18.8536 14.1464C18.9473 14.2402 19 14.3674 19 14.5C19 14.6326 18.9473 14.7598 18.8536 14.8536C18.7598 14.9473 18.6326 15 18.5 15H17.949C17.8409 15.7437 17.4954 16.4326 16.964 16.964C16.4326 17.4954 15.7437 17.8409 15 17.949V18.5C15 18.6326 14.9473 18.7598 14.8536 18.8536C14.7598 18.9473 14.6326 19 14.5 19C14.3674 19 14.2402 18.9473 14.1464 18.8536C14.0527 18.7598 14 18.6326 14 18.5V17.949C13.2563 17.8409 12.5674 17.4954 12.036 16.964C11.5046 16.4326 11.1591 15.7437 11.051 15H10.5C10.3674 15 10.2402 14.9473 10.1464 14.8536C10.0527 14.7598 10 14.6326 10 14.5C10 14.3674 10.0527 14.2402 10.1464 14.1464C10.2402 14.0527 10.3674 14 10.5 14H11.051C11.1591 13.2563 11.5046 12.5674 12.036 12.036C12.5674 11.5046 13.2563 11.1591 14 11.051V10.5C14 10.3674 14.0527 10.2402 14.1464 10.1464C14.2402 10.0527 14.3674 10 14.5 10C14.6326 10 14.7598 10.0527 14.8536 10.1464C14.9473 10.2402 15 10.3674 15 10.5V11.051C15.7437 11.1591 16.4326 11.5046 16.964 12.036C17.4954 12.5674 17.8409 13.2563 17.949 14ZM14.7454 16.9884C15.321 16.9316 15.8591 16.677 16.268 16.268C16.5001 16.0358 16.6843 15.7602 16.8099 15.4568C16.9354 15.1535 17.0001 14.8283 17 14.5C16.9999 13.9216 16.7992 13.3612 16.4322 12.9141C16.0652 12.4671 15.5546 12.1612 14.9873 12.0484C14.42 11.9357 13.8312 12.0231 13.3211 12.2959C12.8111 12.5686 12.4114 13.0097 12.1901 13.5441C11.9689 14.0785 11.9398 14.6731 12.1078 15.2265C12.2757 15.78 12.6304 16.2581 13.1114 16.5793C13.5923 16.9006 14.1698 17.0452 14.7454 16.9884Z" fill="#212121"/>
</svg>

<svg viewBox="0 0 20 20" fill="none" xmlns="http://www.w3.org/2000/svg" height="1em" width="1em">
  <path d="M6 2a2 2 0 0 0-2 2v12a2 2 0 0 0 2 2h5.696a4.487 4.487 0 0 1-1.43-2.018 1.5 1.5 0 0 1 .001-2.964 4.487 4.487 0 0 1 2.751-2.75 1.5 1.5 0 0 1 2.964 0l.018.005V4a2 2 0 0 0-2-2H6Zm9.056 13.332a1 1 0 1 1-1.111-1.663 1 1 0 0 1 1.11 1.662ZM17.949 14h.551a.5.5 0 0 1 0 1h-.551A3.487 3.487 0 0 1 15 17.949v.551a.5.5 0 0 1-1 0v-.551A3.487 3.487 0 0 1 11.051 15H10.5a.5.5 0 0 1 0-1h.551A3.487 3.487 0 0 1 14 11.051V10.5a.5.5 0 0 1 1 0v.551A3.487 3.487 0 0 1 17.949 14Zm-3.204 2.988a2.5 2.5 0 1 0-.49-4.976 2.5 2.5 0 0 0 .49 4.976Z" fill="#212121"/>
</svg>
